X:1
T:Melo, 10.10.12.10
T:Melo, 10.10.12.10
T:William James Kirkpatrick, 1899
T:Public Domain Courtesy of the Cyber Hymnal™
C:William James Kirkpatrick, 1899
Z:Public Domain
Z:Courtesy of the Cyber Hymnal™
%%score ( 1 2 ) ( 3 4 )
L:1/8
Q:1/4=107
M:3/4
K:D
V:1 treble 
V:2 treble 
V:3 bass 
V:4 bass 
V:1
 [DF]2 [DF]2 [DG]2 | [GB]>[FA] [FA]4 | D2 D2 [CE]2 | [DF]6 | [DF]2 [DF]2 [E^G]2 | [EA]>[EB] [Ec]4 | %6
 (cB) [FA]2 [=E^G]2 | [FA]6 | [GA]2 [Gc]2 [GB]2 | [FB]>[FA] [FA]4 | [FA]2 [Fd]2 [Ac]2 | %11
 [Ac]>[GB] [GB]4 | [GB]2 [Ee]2 [^EB]2 | [FA]>[Fd] [Fd]4 | [CE]2 [DF]2 [EG]2 | [DF]6 |] %16
V:2
 x6 | x6 | D2 D2 x2 | x6 | x6 | x6 | ^E2 x4 | x6 | x6 | x6 | x6 | x6 | x6 | x6 | x6 | x6 |] %16
V:3
 [D,A,]2 [D,A,]2 [D,B,]2 | [D,C]>[D,D] [D,D]4 | [B,,F,]2 [B,,F,]2 [A,,A,]2 | [D,A,]6 | %4
 [D,A,]2 [D,A,]2 [D,B,]2 | [C,A,]>[B,,^G,] [A,,A,]4 | [C,^G,]2 [C,C]2 [C,C]2 | [F,A,]6 | %8
 [A,C]2 [A,E]2 [A,C]2 | [D,D]>[D,D] [D,D]4 | [D,D]2 [D,A,]2 [F,D]2 | [G,D]>[G,D] [G,D]4 | %12
 [G,D]2 [G,B,]2 [^G,D]2 | [A,D]>A, A,4 | [A,,A,]2 [A,,A,]2 [A,,A,]2 | [D,A,]6 |] %16
V:4
 x6 | x6 | x6 | x6 | x6 | x6 | x6 | x6 | x6 | x6 | x6 | x6 | x6 | x3/2 A,/ A,4 | x6 | x6 |] %16

